X:1
T:Title
%%score { ( 1 3 ) | ( 2 4 ) }
L:1/8
M:4/4
K:Ab
V:1 treble nm="Grand Piano"
V:3 treble 
V:2 bass 
V:4 bass 
V:1
 z4 z2[Q:1/4=94] [CA][DB] | [Ec][Ec][DB][Ec] [DB][CA][K:bass][E,A,C][E,B,D] | %2
 [A,CE][A,CE][G,DE][K:treble][G,DE] [A,CE]2 [A,CE][A,CE] | %3
 [A,DF][A,DF][=A,EF][A,F] [DF][DF][DF][DF] |[M:9/8] [=DF][DF][DG] [DA] B2- BAB | %5
[M:4/4] [Ec][Ec][DB][Ec] [DB][CA][A,C][B,D] | [CE][CE][DE][DE] [CE]2 [CE][CE] | %7
[M:17/16] [DF][EG][FA][DF][CE][CA]3/2[Ee][Fd] |[M:4/4] c c3 B B3 |[M:3/4] [CA]6 |[M:1/4] c>B | %11
[M:4/4] z[K:bass] A3- A2[K:treble] z2 | z F3- F2 z2 | [CE][CE][A,C][CE] [EA][EA][DG][CA] | %14
[M:3/4] B6 |[M:1/4] c>B |[M:4/4] z[K:bass] A3- A2[K:treble] z2 | z d3- d2 z2 | EABc BBAG | %19
[M:3/4] [CA]6 |] %20
V:2
 z4 z2 [A,,A,][A,,A,] | [A,,A,][A,,A,][A,,A,][A,,A,] [A,,A,][A,,E,]A,,A,, | %2
 A,,A,,B,,B,, C,2 A,,A,, | D,D,C,C, [B,,B,][B,,B,][B,,B,][B,,B,] | %4
[M:9/8] [B,,B,][B,,B,][B,,B,] [B,,A,] [E,G,D]2- [E,G,D][E,A,C][E,G,D] | %5
[M:4/4] [A,,A,][A,,A,][A,,A,][A,,A,] [A,,A,][A,,E,][A,,E,][A,,E,] | %6
 [A,,A,][A,,A,][B,,G,][B,,G,] [C,A,]2 [A,,A,][A,,A,] | %7
[M:17/16] [D,A,][D,A,][D,D][D,A,][A,,A,][A,,E,]3/2[C,A,][D,A,] | %8
[M:4/4] [E,A,E] [E,A,E]3 [E,G,D] [E,G,D]3 |[M:3/4] [A,,E,A,]6 |[M:1/4] E>D |[M:4/4] z C3- C2 z2 | %12
 z D3- D2 z2 | [A,,A,][A,,A,][A,,E,][A,,A,] [C,A,][C,A,][B,,E,][A,,E,] |[M:3/4] [E,G,E]6 | %15
[M:1/4] E>D |[M:4/4] z C3- C2[K:treble] z2 | z[K:bass] F3- F2 z2 | %18
 [E,A,C][E,A,C][E,G,D][E,A,E] [E,G,D][E,G,D][E,C][E,B,] |[M:3/4] [A,,E,]6 |] %20
V:3
 x8 | x6[K:bass] x2 | x3[K:treble] x5 | x8 |[M:9/8] x9 |[M:4/4] x8 | x8 |[M:17/16] x17/2 | %8
[M:4/4] x8 |[M:3/4] x6 |[M:1/4] x2 |[M:4/4] .B2[K:bass] E,>E, E,2[K:treble] A>G | %12
 .G2 A,>A, A,2 FF | x8 |[M:3/4] x6 |[M:1/4] x2 |[M:4/4] .B2[K:bass] E,>E, E,2[K:treble] e>f | %17
 .e2 A,>A, A,2 FF | x8 |[M:3/4] x6 |] %20
V:4
 x8 | x8 | x8 | x8 |[M:9/8] x9 |[M:4/4] x8 | x8 |[M:17/16] x17/2 |[M:4/4] x8 |[M:3/4] x6 | %10
[M:1/4] x2 |[M:4/4] .D2 A,,>A,, A,,2 C>E | .E2 D,>D, D,2 [D,A,D][D,A,D] | x8 |[M:3/4] x6 | %15
[M:1/4] x2 |[M:4/4] .D2 A,,>A,, A,,2[K:treble] _G>G | ._G2[K:bass] D,>D, D,2 [D,A,D][D,A,D] | x8 | %19
[M:3/4] x6 |] %20

